apps/assets/icons/car-small.svg

<svg width="99" height="40" viewBox="0 0 99 40" fill="none" xmlns="http://www.w3.org/2000/svg">
<path d="M22.3998 30.9065C22.3998 31.2865 22.3688 31.6585 22.3208 32.0255C21.7698 36.4145 18.0318 39.8105 13.4948 39.8105C8.83277 39.8105 5.01478 36.2265 4.62778 31.6655C4.60678 31.4135 4.58978 31.1615 4.58978 30.9045C4.58978 25.9855 8.57477 21.9995 13.4948 21.9995C18.4118 22.0025 22.3998 25.9885 22.3998 30.9065ZM7.96777 30.1505H10.5268C10.5978 29.8715 10.7088 29.6095 10.8498 29.3675L9.03278 27.5505C8.47178 28.2955 8.09977 29.1805 7.96777 30.1505ZM9.03477 34.2915L10.8608 32.4635C10.7188 32.2235 10.6028 31.9695 10.5298 31.6925H7.97078C8.10678 32.6565 8.47177 33.5495 9.03477 34.2915ZM12.7228 33.8685C12.4488 33.7975 12.1888 33.6925 11.9508 33.5535L10.1398 35.3655C10.8808 35.9265 11.7588 36.3035 12.7228 36.4355V33.8685ZM12.7228 25.3815C11.7508 25.5165 10.8668 25.8915 10.1208 26.4595L11.9348 28.2725C12.1788 28.1285 12.4408 28.0175 12.7218 27.9445V25.3815H12.7228ZM17.9548 27.5495L16.1388 29.3665C16.2808 29.6085 16.3908 29.8705 16.4598 30.1495H19.0208C18.8888 29.1805 18.5168 28.2955 17.9548 27.5495ZM14.2648 27.9455C14.5458 28.0185 14.8078 28.1305 15.0518 28.2735L16.8648 26.4605C16.1188 25.8945 15.2338 25.5195 14.2628 25.3845L14.2648 27.9455ZM16.8488 35.3655L15.0378 33.5545C14.8008 33.6955 14.5378 33.7965 14.2658 33.8675V36.4365C15.2288 36.3055 16.1078 35.9265 16.8488 35.3655ZM19.0308 31.6935H16.4518C16.3788 31.9675 16.2708 32.2275 16.1308 32.4655L17.9498 34.2855C18.5128 33.5435 18.8938 32.6575 19.0308 31.6935Z" fill="black"/>
<path d="M88.3268 30.9065C88.3268 31.2865 88.2968 31.6585 88.2478 32.0255C87.6968 36.4145 83.9588 39.8105 79.4228 39.8105C74.7608 39.8105 70.9428 36.2265 70.5558 31.6655C70.5348 31.4135 70.5168 31.1615 70.5168 30.9045C70.5168 25.9855 74.5018 21.9995 79.4228 21.9995C84.3398 22.0025 88.3268 25.9885 88.3268 30.9065ZM73.8938 30.1505H76.4538C76.5248 29.8715 76.6368 29.6095 76.7768 29.3675L74.9598 27.5505C74.3978 28.2955 74.0268 29.1805 73.8938 30.1505ZM74.9608 34.2915L76.7868 32.4635C76.6448 32.2235 76.5288 31.9695 76.4558 31.6925H73.8968C74.0338 32.6565 74.3978 33.5495 74.9608 34.2915ZM78.6498 33.8685C78.3758 33.7975 78.1158 33.6925 77.8778 33.5535L76.0668 35.3655C76.8078 35.9265 77.6858 36.3035 78.6498 36.4355V33.8685ZM78.6498 25.3815C77.6788 25.5165 76.7938 25.8915 76.0488 26.4595L77.8618 28.2725C78.1058 28.1285 78.3678 28.0175 78.6488 27.9445V25.3815H78.6498ZM83.8818 27.5495L82.0648 29.3665C82.2068 29.6085 82.3168 29.8705 82.3868 30.1495H84.9468C84.8158 29.1805 84.4438 28.2955 83.8818 27.5495ZM80.1918 27.9455C80.4728 28.0185 80.7348 28.1305 80.9788 28.2735L82.7928 26.4595C82.0478 25.8935 81.1618 25.5185 80.1908 25.3835L80.1918 27.9455ZM82.7758 35.3655L80.9658 33.5545C80.7278 33.6955 80.4658 33.7965 80.1928 33.8675V36.4365C81.1568 36.3055 82.0348 35.9265 82.7758 35.3655ZM84.9568 31.6935H82.3778C82.3058 31.9675 82.1968 32.2275 82.0568 32.4655L83.8758 34.2855C84.4388 33.5435 84.8208 32.6575 84.9568 31.6935Z" fill="black"/>
<path d="M98.7098 26.2175L97.6968 31.6965C97.4678 32.9365 96.3848 33.8395 95.1238 33.8395H90.0088C90.1478 33.3375 90.2618 32.8235 90.3278 32.2945C90.3918 31.7945 90.4238 31.3395 90.4238 30.9085C90.4238 24.8415 85.4868 19.9055 79.4218 19.9055C73.3548 19.9055 68.4178 24.8415 68.4178 30.9085C68.4178 31.2235 68.4388 31.5345 68.4648 31.8465C68.5228 32.5315 68.6468 33.1965 68.8258 33.8385H24.0798C24.2198 33.3365 24.3328 32.8235 24.3998 32.2955C24.4638 31.7935 24.4948 31.3405 24.4948 30.9085C24.4948 24.8425 19.5588 19.9055 13.4928 19.9055C7.42683 19.9055 2.48983 24.8425 2.48983 30.9085C2.48983 31.2225 2.51083 31.5345 2.53583 31.8465C2.59483 32.5325 2.71883 33.1975 2.89783 33.8405H1.59983C1.59983 33.8405 -0.612167 26.7295 0.165833 23.4985C0.772833 20.9795 2.32583 19.9545 2.32583 19.9545C2.32583 19.9545 2.17983 16.2615 4.17083 12.4415C4.59283 11.6305 7.87483 7.16448 12.8158 2.71148C15.0738 0.675477 16.8498 0.0404783 19.8898 0.0324783C28.4998 0.00947833 48.2938 -0.032522 52.9698 0.043478C56.0808 0.094478 57.8688 0.578478 60.5718 2.18948C60.8398 2.34848 60.9788 2.65648 60.9008 2.95748C60.8228 3.25848 60.5508 3.46848 60.2398 3.46848H60.0638L68.7978 12.0185C68.7978 12.0185 72.2478 12.0355 73.3978 12.0825C79.1138 12.3185 89.3938 13.1625 95.6268 17.9135C96.4678 18.5545 97.0178 19.5055 97.1508 20.5535C97.3248 21.9165 97.3508 23.4245 97.3508 23.4245C98.3678 23.9575 98.9178 25.0885 98.7098 26.2175ZM26.9778 3.46748H17.9538C16.9738 3.46748 16.0248 3.79248 15.2508 4.39548C13.1378 6.04348 11.4828 7.86148 10.2508 9.46348C10.0008 9.78848 9.95683 10.2265 10.1368 10.5945C10.3148 10.9635 10.6858 11.1995 11.0958 11.2055L26.9768 11.4295L26.9778 3.46748ZM31.7848 3.46748H31.1728V11.4885L31.7848 11.4975V3.46748ZM64.2388 11.9525L55.5698 3.46648H35.9808V11.5545L56.7518 11.8465C56.7408 11.7435 56.7258 11.6435 56.7258 11.5375C56.7258 10.1475 57.7198 9.02048 58.9458 9.02048C60.1738 9.02048 61.1668 10.1475 61.1668 11.5375C61.1668 11.6645 61.1498 11.7865 61.1348 11.9085L64.2388 11.9525Z" fill="black"/>
</svg>

<svg fill="none" xmlns="http://www.w3.org/2000/svg" viewBox="0 0 99 40">
  <path d="M22.4 30.907c0 .38-.031.752-.08 1.119-.55 4.388-4.288 7.784-8.825 7.784-4.662 0-8.48-3.584-8.867-8.145a9.122 9.122 0 01-.038-.76A8.903 8.903 0 0113.495 22c4.917.003 8.905 3.988 8.905 8.907zM7.968 30.15h2.559c.07-.28.182-.541.323-.784L9.033 27.55a5.546 5.546 0 00-1.065 2.6zm1.067 4.14l1.826-1.827a3.023 3.023 0 01-.331-.771H7.97a5.574 5.574 0 001.065 2.598zm3.688-.422a3.041 3.041 0 01-.772-.316l-1.811 1.813a5.499 5.499 0 002.583 1.07v-2.568zm0-8.488a5.525 5.525 0 00-2.602 1.078l1.814 1.814c.244-.145.506-.256.787-.328V25.38zm5.232 2.168l-1.816 1.817c.142.242.252.505.32.784h2.562a5.545 5.545 0 00-1.066-2.6zm-3.69.396c.28.073.543.186.787.328l1.813-1.813a5.547 5.547 0 00-2.602-1.076l.002 2.561zm2.584 7.42l-1.811-1.81a2.98 2.98 0 01-.772.313v2.569a5.494 5.494 0 002.583-1.072zm2.182-3.672h-2.58a3.093 3.093 0 01-.32.772l1.819 1.82a5.582 5.582 0 001.08-2.591zM88.327 30.907c0 .38-.03.752-.08 1.119-.55 4.388-4.288 7.784-8.824 7.784-4.662 0-8.48-3.584-8.867-8.145a9.121 9.121 0 01-.04-.76A8.903 8.903 0 0179.424 22c4.917.003 8.904 3.988 8.904 8.907zm-14.433-.756h2.56c.07-.28.183-.541.323-.784L74.96 27.55a5.547 5.547 0 00-1.066 2.6zm1.067 4.14l1.826-1.827a3.023 3.023 0 01-.331-.771h-2.56a5.585 5.585 0 001.065 2.598zm3.689-.422a3.041 3.041 0 01-.772-.316l-1.811 1.813a5.499 5.499 0 002.583 1.07v-2.568zm0-8.488a5.522 5.522 0 00-2.601 1.078l1.813 1.814c.244-.145.506-.256.787-.328V25.38zm5.232 2.168l-1.817 1.817c.142.242.252.505.322.784h2.56a5.534 5.534 0 00-1.065-2.6zm-3.69.396c.28.073.543.186.787.328l1.814-1.814a5.543 5.543 0 00-2.602-1.075v2.561zm2.584 7.42l-1.81-1.81c-.238.14-.5.242-.773.313v2.569a5.49 5.49 0 002.583-1.072zm2.18-3.672h-2.578a3.056 3.056 0 01-.321.772l1.819 1.82a5.572 5.572 0 001.08-2.591z" fill="#000"/>
  <path d="M98.71 26.218l-1.013 5.479a2.62 2.62 0 01-2.573 2.143h-5.115c.139-.503.253-1.017.319-1.546.064-.5.096-.954.096-1.385 0-6.067-4.937-11.003-11.002-11.003-6.067 0-11.004 4.936-11.004 11.003 0 .315.02.626.047.938.058.684.182 1.35.36 1.992H24.08a10.798 10.798 0 00.415-2.93c0-6.066-4.936-11.003-11.002-11.003-6.066 0-11.003 4.937-11.003 11.003 0 .314.02.626.046.938.059.685.183 1.35.362 1.993H1.6S-.612 26.73.166 23.498c.607-2.518 2.16-3.544 2.16-3.544s-.146-3.692 1.845-7.513c.422-.81 3.704-5.277 8.645-9.73C15.074.675 16.85.041 19.89.032 28.5.01 48.294-.033 52.97.043c3.11.051 4.899.535 7.602 2.146a.692.692 0 01.329.768.683.683 0 01-.661.511h-.176l8.734 8.55s3.45.018 4.6.064c5.716.236 15.996 1.08 22.229 5.831a3.946 3.946 0 011.524 2.64c.174 1.363.2 2.871.2 2.871a2.616 2.616 0 011.359 2.794zM26.978 3.468h-9.024c-.98 0-1.93.324-2.703.927-2.113 1.648-3.768 3.466-5 5.068-.25.325-.294.764-.114 1.132.178.368.549.604.959.61l15.88.225.002-7.963zm4.807 0h-.612v8.02l.612.01v-8.03zm32.454 8.485l-8.67-8.487H35.982v8.088l20.77.293c-.01-.104-.025-.204-.025-.31 0-1.39.994-2.517 2.22-2.517 1.228 0 2.22 1.128 2.22 2.518 0 .127-.016.248-.031.37l3.104.045z" fill="#000"/>
</svg>
